X:170
T: House down the Street (The)
C: BB
M: 6/8
Q: 1/8=320
L: 1/8
R: jig
K: G
D|"G"DEG BAB | "Bm7"dBA "C"GEC | "G"DEG Bdg | "Em7"edB "D"A2 F |
"G"DEG BAB | "C"cBc "D"def | "G"gdB "D"FAd | "G"BGF "G"G2 :|
A | "Em"Bee gfe | "G"bgb gfe | "G"def "C"gfe | "G"dBd "Em"e2 f |
"G"gfe dcB | "Am7"ABG "D"FED | "G"GBd "Am6"cAF | "D"AGF "G"G2 :|
